ix/send-sqaure-2_twotone.svg

<svg viewBox="0 0 24 24" fill="none" xmlns="http://www.w3.org/2000/svg" height="1em" width="1em">
  <path d="M9 22H15C20 22 22 20 22 15V9C22 4 20 2 15 2H9C4 2 2 4 2 9V15C2 20 4 22 9 22Z" stroke="#292D32" stroke-width="1.5" stroke-linecap="round" stroke-linejoin="round"/>
  <g opacity="0.4">
    <path d="M10.5898 7.68018H14.8298V11.9302" stroke="#292D32" stroke-width="1.5" stroke-linecap="round" stroke-linejoin="round"/>
    <path d="M14.8299 7.68018L9.16992 13.3402" stroke="#292D32" stroke-width="1.5" stroke-linecap="round" stroke-linejoin="round"/>
  </g>
  <path opacity="0.4" d="M6 16.5098C9.89 17.8098 14.11 17.8098 18 16.5098" stroke="#292D32" stroke-width="1.5" stroke-linecap="round" stroke-linejoin="round"/>
</svg>

<svg viewBox="0 0 24 24" fill="none" xmlns="http://www.w3.org/2000/svg" height="1em" width="1em">
  <path d="M9 22h6c5 0 7-2 7-7V9c0-5-2-7-7-7H9C4 2 2 4 2 9v6c0 5 2 7 7 7Z" stroke="#292D32" stroke-width="1.5" stroke-linecap="round" stroke-linejoin="round"/>
  <path d="M10.59 7.68h4.24v4.25m0-4.25-5.66 5.66M6 16.51c3.89 1.3 8.11 1.3 12 0" opacity=".4" stroke="#292D32" stroke-width="1.5" stroke-linecap="round" stroke-linejoin="round"/>
</svg>
